icons/svg/octagon.svg

<svg width="24" height="24" viewBox="0 0 24 24" fill="none" xmlns="http://www.w3.org/2000/svg">
<path d="M7.28987 3.62868C7.85248 3.06607 8.61555 2.75 9.4112 2.75L14.5889 2.75C15.3845 2.75 16.1476 3.06607 16.7102 3.62868L20.3713 7.28984C20.934 7.85245 21.25 8.61552 21.25 9.41117V14.5888C21.25 15.3845 20.934 16.1475 20.3713 16.7102L16.7102 20.3713C16.1476 20.9339 15.3845 21.25 14.5889 21.25H9.4112C8.61555 21.25 7.85248 20.9339 7.28987 20.3713L3.62871 16.7102C3.0661 16.1475 2.75003 15.3845 2.75003 14.5888L2.75003 9.41117C2.75003 8.61552 3.0661 7.85245 3.62871 7.28984L7.28987 3.62868Z" stroke="currentColor" stroke-width="1.5" stroke-linecap="round" stroke-linejoin="round"/>
</svg>

<svg xmlns="http://www.w3.org/2000/svg" width="24" height="24" fill="none" viewBox="0 0 24 24"><path stroke="currentColor" stroke-linecap="round" stroke-linejoin="round" stroke-width="1.5" d="M7.29 3.629a3 3 0 0 1 2.12-.879h5.178a3 3 0 0 1 2.121.879l3.661 3.66a3 3 0 0 1 .879 2.122v5.178a3 3 0 0 1-.879 2.121l-3.66 3.661a3 3 0 0 1-2.122.879H9.41a3 3 0 0 1-2.121-.879l-3.661-3.66a3 3 0 0 1-.879-2.122V9.41a3 3 0 0 1 .879-2.121z"/></svg>
